X:82
T:No.82 The Marin
C:jig
M:6/8
L:1/8
K:D
f2a gfe|f2dB2B|AFA faf|
e3e2e|f2a gfe|f2dB2B|
AFA fae|d3dcd||e3 efg|
a3a2f|g2gA2A|g3g2e|f2a gfe|
f2dB2B|AFA fae|d3d3||
